X: 34568
T: Rippling Water
R: jig
M: 6/8
K: Gmajor
|:f|g2 g gfe|dBd edB|DFA cBA|GAB def|
g2 g gfe|dBd e2 B|DFA c2 A|GAG G2:|
K: DMaj
|:d|afd fdA|Adf a2 f|Ace g2 e|dd/e/f a2 f|
afd f2 d|Adf afd|gag f2 e|1 dec B2:|2 ded d2||

